assets/img/components/checkbox.svg

<svg width="273" height="144" viewBox="0 0 273 144" fill="none" xmlns="http://www.w3.org/2000/svg">
<rect x="0.263672" y="0.350098" width="272" height="143" rx="8" fill="#EFF6FB"/>
<rect x="21.2637" y="28.3501" width="28.9412" height="28.9412" rx="4.82353" fill="#154973"/>
<path d="M83.5186 43.3894C83.5186 41.7326 84.8617 40.3894 86.5186 40.3894H170.558C172.215 40.3894 173.558 41.7326 173.558 43.3894V43.3894C173.558 45.0463 172.215 46.3894 170.558 46.3894H86.5185C84.8617 46.3894 83.5186 45.0463 83.5186 43.3894V43.3894Z" fill="#457AA5"/>
<path d="M181.597 43.3894C181.597 41.7326 182.94 40.3894 184.597 40.3894H241.303C242.96 40.3894 244.303 41.7326 244.303 43.3894V43.3894C244.303 45.0463 242.96 46.3894 241.303 46.3894H184.597C182.94 46.3894 181.597 45.0463 181.597 43.3894V43.3894Z" fill="#457AA5"/>
<rect x="22.8715" y="83.0168" width="25.7255" height="25.7255" rx="3.21569" fill="white" stroke="#BEC0C1" stroke-width="3.21569"/>
<rect x="82.4688" y="94.2717" width="136.458" height="6" rx="3" fill="#BEC0C1"/>
<path d="M33.7523 46.2583L30.1051 42.5927C29.7947 42.2802 29.3977 42.1239 28.9176 42.1239C28.4375 42.1239 28.0405 42.2802 27.7301 42.5927C27.4197 42.9052 27.2637 43.3032 27.2637 43.7862C27.2637 44.2692 27.4197 44.6671 27.7301 44.9796L32.5649 49.8386C32.9041 50.1796 33.2994 50.3501 33.7523 50.3501C34.2053 50.3501 34.6005 50.1796 34.9398 49.8386L44.5245 40.2058C44.8349 39.8933 44.9909 39.4954 44.9909 39.0124C44.9909 38.5293 44.8349 38.1315 44.5245 37.819C44.2141 37.5064 43.8171 37.3501 43.337 37.3501C42.8569 37.3501 42.4599 37.5064 42.1495 37.819L33.7523 46.2583Z" fill="white"/>
</svg>

<svg xmlns="http://www.w3.org/2000/svg" width="273" height="144" fill="none" viewBox="0 0 273 144"><rect width="272" height="143" x=".264" y=".35" fill="#eff6fb" rx="8"/><rect width="28.941" height="28.941" x="21.264" y="28.35" fill="#154973" rx="4.824"/><path fill="#457aa5" d="M83.519 43.39a3 3 0 0 1 3-3h84.039a3 3 0 1 1 0 6h-84.04a3 3 0 0 1-3-3M181.597 43.39a3 3 0 0 1 3-3h56.706a3 3 0 1 1 0 6h-56.706a3 3 0 0 1-3-3"/><rect width="25.726" height="25.726" x="22.872" y="83.017" fill="#fff" stroke="#bec0c1" stroke-width="3.216" rx="3.216"/><rect width="136.458" height="6" x="82.469" y="94.272" fill="#bec0c1" rx="3"/><path fill="#fff" d="m33.752 46.258-3.647-3.665q-.466-.47-1.187-.47-.72 0-1.188.47-.465.468-.466 1.193 0 .724.466 1.194l4.835 4.859q.509.51 1.187.511.679 0 1.188-.511l9.585-9.633q.466-.469.466-1.194 0-.724-.466-1.193t-1.188-.469-1.187.469z"/></svg>
